X:1
T: The Bouchaleen Bawn
C:
R:Jig
Q:180
K:Am
M:6/8
L:1/16
|:E2|E2A2A2 A2G2E2|G2A2B2 c4d2|e2g2e2 d2c2B2|A2B2A2 G2E2D2|
E2A2A2 A2G2E2|G2A2B2 c4d2|e2g2e2 d2c2B2|B2A2B2 A4:|
|:e2|e2a2a2 a2g2a2|b2a2g2 g2e2d2|e2a2a2 e4e2|B2A2B2 G2E2D2|
E2A2A2 A2G2E2|G2A2B2 c4d2|e2g2e2 d2c2B2|B2A2B2 A4:|
